!!!!SEGMENT: pl-stab--3a--001-007_dankowski-adalbert--vespere-pastorales-gloria.krn
!!!cenid: 18xx:3489
!!!COM: Dankowski, Adalbert
!!!COM-rismid: pe30000793
!!!CDT: ~1760-~1836
!!!CNT: Polish
!!!OPR: Vespere Pastorales
!!!OTL: Gloria
!!!OMV: 007
!!!PDT: 1804
!!!AGN: Sacred; Vespers
!!!SMS-siglum: PL-STAb
!!!SMS-shelfmark: 3a
!!!SMS-shelfwork: 001-007 M
!!!SMS-variant:
!!!SMS-altvar:
!!!NIFC-rismid: 301050554
!!!URL-scan: https://repozytorium.nifc.pl/islandora/object/pl-stab%3A928/datastream/PDF/view
!!!ONB-nifc: UWAGA: części Nieszporów: 1. Dixit Dominus, 2. Confitebor, 3. Beatus vir, 4. Laudate pueri, 5. Magnificat, 6. Fecit potentiam, 7. Gloria
!!!key: D
**kern	**fba	**kern	**dynam	**kern	**dynam	**kern	**text	**kern	**text	**kern	**text	**kern	**text	**kern	**kern
*part9	*	*part8	*part8	*part7	*part7	*part6	*part6	*part5	*part5	*part4	*part4	*part3	*part3	*part2	*part1
*group4	*	*group3	*	*group3	*	*group2	*	*group2	*	*group2	*	*group2	*	*group1	*group1
*staff9	*	*staff8	*	*staff7	*	*staff6	*staff6	*staff5	*staff5	*staff4	*staff4	*staff3	*staff3	*staff2	*staff1
*I"Organo	*	*I"Violino Secondo	*	*I"Violino Primo	*	*I"Baſso	*	*I"Tenor	*	*I"Alto	*	*I"Canto	*	*I"Cornu Secondo Ex D:	*I"Cornu Primo Ex D.
*I'org	*	*I'vl 2	*	*I'vl 1	*	*I'B	*	*I'T	*	*I'A	*	*I'S	*	*I'cor 2 in D	*I'cor 1 in D
*Iorgan	*	*Ivioln	*	*Ivioln	*	*Ibass	*	*Itenor	*	*Ialto	*	*Isoprn	*	*Icor	*Icor
*ICklav	*	*ICstr	*	*ICstr	*	*ICvox	*	*ICvox	*	*ICvox	*	*ICvox	*	*ICbras	*ICbras
*	*	*	*	*	*	*IGcoro	*	*IGcoro	*	*IGcoro	*	*IGcoro	*	*	*
*clefF4	*	*clefG2	*	*clefG2	*	*clefF4	*	*clefC4	*	*clefC3	*	*clefC1	*	*clefG2	*clefG2
*	*	*	*	*	*	*	*	*	*	*	*	*	*	*ITrd6c10	*ITrd6c10
*k[f#c#]	*	*k[f#c#]	*	*k[f#c#]	*	*k[f#c#]	*	*k[c#f#]	*	*k[f#c#]	*	*k[f#c#]	*	*k[f#c#]	*k[f#c#]
*D:	*	*D:	*	*D:	*	*D:	*	*D:	*	*D:	*	*D:	*	*D:	*D:
*M3/4	*	*M3/4	*	*M3/4	*	*M3/4	*	*M3/4	*	*M3/4	*	*M3/4	*	*M3/4	*M3/4
=1	=1	=1	=1	=1	=1	=1	=1	=1	=1	=1	=1	=1	=1	=1	=1
*2\right	*	*2\right	*2\right	*2\right	*2\right	*2\right	*2\right	*2\right	*2\right	*2\right	*2\right	*2\right	*2\right	*2\right	*2\right
!LO:TX:a:B:t=Adagio	!	!LO:TX:t=P:znaki:problem= błędnie ee# zamiast ff#	!	!	!LO:DY:a:B:i:t=for.	!	!	!	!	!	!	!LO:TX:t=P:znaki:problem= cc# zamiast c#	!	!	!
!LO:TX:a:t=Tutti	!	!LO:TX:a:B:t=adagio	!LO:DY:a:B:i:t=for	!LO:TX:a:B:t=Adagio	!LO:DY:a	!LO:TX:B:a:t=Adagio	!	!LO:TX:a:B:t=Adagio	!	!LO:TX:B:a:t=Adagio	!	!LO:TX:a:B:t=Adagio	!	!LO:TX:a:B:t=adagio	!LO:TX:a:B:t=Adagio
2.D/	.	8f#/L	f	8ff#\L	f	4D\	Glo-	4A\	Glo-	4f#\	Glo-	4dd\	Glo-	2.F#/	2.d\
.	.	8a/	.	8aa\	.	.	.	.	.	.	.	.	.	.	.
.	.	8a/	.	8aa\	.	4D\	-ri-	4A\	-ri-	4f#\	-ri-	4dd\	-ri-	.	.
.	.	8g/	.	8gg\	.	.	.	.	.	.	.	.	.	.	.
.	.	8e/	.	8ee\	.	4D\	-a	4A\	-a	4f#\	-a	4dd\	-a	.	.
.	.	8f#/J	.	8ff#\J	.	.	.	.	.	.	.	.	.	.	.
=2	=2	=2	=2	=2	=2	=2	=2	=2	=2	=2	=2	=2	=2	=2	=2
!	!	!	!	!LO:N:vis=16	!	!	!	!	!	!	!	!	!	!	!
2.D/	.	8d/L	.	8dd\LL	.	2D\	pa-	2A\	pa-	2f#\	pa-	2dd\	pa-	2.F#/	2.d\
.	.	.	.	.	.	.	.	.	.	.	.	.	.	.	.
.	.	16c#/L	.	16cc#\J	.	.	.	.	.	.	.	.	.	.	.
!	!	!	!	!LO:N:vis=8	!	!	!	!	!	!	!	!	!	!	!
.	.	16B/JJ	.	16b\J	.	.	.	.	.	.	.	.	.	.	.
.	.	4ryy	.	4a/	.	.	.	.	.	.	.	.	.	.	.
.	.	.	.	.	.	.	.	.	.	.	.	.	.	.	.
.	.	.	.	.	.	.	.	.	.	.	.	.	.	.	.
.	.	8A/L	.	8a\L	.	4D\	-tri	4A\	-tri	4f#\	-tri	4dd\	-tri	.	.
.	.	16B/L	.	16b\L	.	.	.	.	.	.	.	.	.	.	.
.	.	16c#/JJ	.	16cc#\JJ	.	.	.	.	.	.	.	.	.	.	.
=3	=3	=3	=3	=3	=3	=3	=3	=3	=3	=3	=3	=3	=3	=3	=3
2.D/	.	8d/L	.	8dd\L	.	4D\	glo-	4A\	glo-	4f#\	glo-	4dd\	glo-	2.F#/	2.d\
.	.	8f#/	.	8ff#\	.	.	.	.	.	.	.	.	.	.	.
.	.	8d/	.	8dd\	.	4D\	-ri-	4A\	-ri-	4f#\	-ri-	4dd\	-ri-	.	.
.	.	8f#/J	.	8ff#\J	.	.	.	.	.	.	.	.	.	.	.
.	.	8a/L	.	8aa\L	.	4D\	-a	4A\	-a	4f#\	-a	4dd\	-a	.	.
.	.	16e/L	.	16ee\L	.	.	.	.	.	.	.	.	.	.	.
.	.	16f#/JJ	.	16ff#\JJ	.	.	.	.	.	.	.	.	.	.	.
=4	=4	=4	=4	=4	=4	=4	=4	=4	=4	=4	=4	=4	=4	=4	=4
2.D/	.	16d/LL	.	16dd\LL	.	4.D\	fi-	4.A\	fi-	4.f#\	fi-	4.dd\	fi-	2.F#/	2.d\
.	.	16c#/	.	16cc#\	.	.	.	.	.	.	.	.	.	.	.
.	.	16B/	.	16b\	.	.	.	.	.	.	.	.	.	.	.
.	.	16A/JJ	.	16a\JJ	.	.	.	.	.	.	.	.	.	.	.
!	!	!LO:N:vis=8	!	!	!	!	!	!	!	!	!	!	!	!	!
.	.	4.d/L	.	4.dd\	.	.	.	.	.	.	.	.	.	.	.
.	.	.	.	.	.	8D\	-li-	8A\	-li-	8f#\	-li-	8dd\	-li-	.	.
.	.	.	.	.	.	.	.	.	.	.	.	.	.	.	.
.	.	.	.	.	.	4D\	-o	4A\	-o	4f#\	-o	4dd\	-o	.	.
.	.	16e/L	.	16ee\LL	.	.	.	.	.	.	.	.	.	.	.
.	.	16f#/JJ	.	16ff#\JJ	.	.	.	.	.	.	.	.	.	.	.
=5	=5	=5	=5	=5	=5	=5	=5	=5	=5	=5	=5	=5	=5	=5	=5
2.D/	.	8d/L	.	8dd\L	.	2D\	et	2A\	et	2f#\	et	2dd\	et	2.F#/	2.d\
.	.	16e/L	.	16ee\L	.	.	.	.	.	.	.	.	.	.	.
.	.	16f#/JJ	.	16ff#\JJ	.	.	.	.	.	.	.	.	.	.	.
.	.	8d/L	.	8dd\L	.	.	.	.	.	.	.	.	.	.	.
.	.	16e/L	.	16ee\L	.	.	.	.	.	.	.	.	.	.	.
.	.	16f#/JJ	.	16ff#\JJ	.	.	.	.	.	.	.	.	.	.	.
!	!	!LO:LB:g=original	!	!	!	!	!	!	!	!	!	!	!	!	!
=-	=-	=	=	=-	=-	=-	=-	=-	=-	=-	=-	=-	=-	=-	=-
.	.	8d/L	.	8dd\L	.	4D\	spi-	4A\	spi-	4f#\	spi-	4dd\	spi-	.	.
.	.	16e/L	.	16ee\L	.	.	.	.	.	.	.	.	.	.	.
.	.	16f#/JJ	.	16ff#\JJ	.	.	.	.	.	.	.	.	.	.	.
!	!	!	!	!LO:LB:g=original	!	!	!	!	!	!LO:LB:g=original	!	!LO:LB:g=original	!	!	!
=6	=6	=6	=6	=6	=6	=6	=6	=6	=6	=6	=6	=6	=6	=6	=6
2.D/	.	8d/L	.	8dd\L	.	4.D\	-ri-	4.A\	-ri-	4.f#\	-ri-	4.dd\	-ri-	2.F#/	2.d\
.	.	16c#/L	.	16cc#\L	.	.	.	.	.	.	.	.	.	.	.
.	.	16B/JJ	.	16b\JJ	.	.	.	.	.	.	.	.	.	.	.
.	.	8A/L	.	8a\L	.	.	.	.	.	.	.	.	.	.	.
.	.	8f#/J	.	8ff#\J	.	8D\	-tu-	8A\	-tu-	8f#\	-tu-	8dd\	-tu-	.	.
.	.	16d/LL	.	16dd\LL	.	4D\	-i	4d\	-i	4f#\	-i	4dd\	-i	.	.
.	.	16c#/	.	16cc#\	.	.	.	.	.	.	.	.	.	.	.
.	.	16B/	.	16b\	.	.	.	.	.	.	.	.	.	.	.
.	.	16A/JJ	.	16a\JJ	.	.	.	.	.	.	.	.	.	.	.
!	!	!	!	!	!	!LO:LB:g=original	!	!LO:LB:g=original	!	!	!	!	!	!	!
=7	=7	=7	=7	=7	=7	=7	=7	=7	=7	=7	=7	=7	=7	=7	=7
2.BB/	6\ 3	8d/L	.	8dd\L	.	2.B\	San-	2.e\	San-	2.g#X\	San-	2.dd\	San-	2.r	2.r
.	.	16f#/L	.	16ff#\L	.	.	.	.	.	.	.	.	.	.	.
.	.	16g#X/JJ	.	16gg#X\JJ	.	.	.	.	.	.	.	.	.	.	.
.	.	8a/L	.	8aa\L	.	.	.	.	.	.	.	.	.	.	.
.	.	8g#/	.	8gg#\	.	.	.	.	.	.	.	.	.	.	.
.	.	8e/	.	8ee\	.	.	.	.	.	.	.	.	.	.	.
.	.	8g#/J	.	8gg#\J	.	.	.	.	.	.	.	.	.	.	.
=8	=8	=8	=8	=8	=8	=8	=8	=8	=8	=8	=8	=8	=8	=8	=8
2AA/	.	8g/L	.	8gg\L	.	2A\	-cto	2e\	-cto	2a\	-cto	2cc#\	-cto	4A/	4e\
.	.	8a/J	.	8aa\J	.	.	.	.	.	.	.	.	.	.	.
.	.	4c#/	.	4ee\	.	.	.	.	.	.	.	.	.	4A/	4e\
4r	.	4r	.	4r	.	4r	.	4r	.	4r	.	4r	.	4r	4r
!LO:LB:g=original	!	!LO:LB:g=original	!	!LO:LB:g=original	!	!LO:LB:g=original	!	!LO:LB:g=original	!	!LO:LB:g=original	!	!LO:LB:g=original	!	!LO:LB:g=original	!LO:LB:g=original
=9||	=9||	=9||	=9||	=9||	=9||	=9||	=9||	=9||	=9||	=9||	=9||	=9||	=9||	=9||	=9||
*k[f#c#]	*	*k[f#c#]	*	*k[f#c#]	*	*k[f#c#]	*	*k[c#f#]	*	*k[f#c#]	*	*k[f#c#]	*	*k[f#c#]	*k[f#c#]
*M2/4	*	*M2/4	*	*M2/4	*	*M2/4	*	*M2/4	*	*M2/4	*	*M2/4	*	*M2/4	*M2/4
*	*	*^	*	*	*	*	*	*	*	*	*	*	*	*	*
!LO:TX:a:t=Sicut	!	!LO:TX:t=P:znaki:problem= błędnie ee# zamiast ff#, b# zamiast cc#	!LO:TX:a:B:t=allo	!	!LO:TX:t=Sicut	!	!	!	!	!	!	!	!LO:TX:t=P:znaki:problem= cc# zamiast c#	!	!LO:TX:t=Sicut erat	!LO:TX:t=Sicut erat
!LO:TX:a:B:t=Allo	!	!LO:TX:a:t=Sicut erat	!	!LO:DY:a:B:i:t=for	!LO:TX:a:B:t=allo	!LO:DY:a:B:i:t=for.	!LO:TX:a:B:t=allo	!	!LO:TX:a:B:t=allo	!	!LO:TX:a:B:t=allo	!	!LO:TX:a:B:t=allo	!	!LO:TX:a:B:t=allo	!LO:TX:a:B:t=allo
!LO:TX:a:t=Solo	!	!	!	!	!	!	!LO:N:vis=00	!	!LO:N:vis=00	!	!LO:N:vis=00	!	!LO:N:vis=00	!	!LO:N:vis=00	!LO:N:vis=00
8D\L	.	8a/L	8f#\L	f	16ff#\LL	f	0r	.	0r	.	0r	.	0r	.	0r	0r
.	.	.	.	.	16gg\	.	.	.	.	.	.	.	.	.	.	.
8D\	.	8a/	8f#\	.	16ff#\	.	.	.	.	.	.	.	.	.	.	.
.	.	.	.	.	16ee\JJ	.	.	.	.	.	.	.	.	.	.	.
8D\	.	8a/	8f#\	.	8dd\L	.	.	.	.	.	.	.	.	.	.	.
8D\J	.	8a/J	8f#\J	.	16ee\L	.	.	.	.	.	.	.	.	.	.	.
.	.	.	.	.	16ff#\JJ	.	.	.	.	.	.	.	.	.	.	.
=10	=10	=10	=10	=10	=10	=10	=10	=10	=10	=10	=10	=10	=10	=10	=10	=10
*tremolo	*	*tremolo	*tremolo	*	*	*	*	*	*	*	*	*	*	*	*	*
8C#/L	x 6	8a/L	8f#\L	.	16gg\LL	.	.	.	.	.	.	.	.	.	.	.
.	.	.	.	.	16aa\	.	.	.	.	.	.	.	.	.	.	.
8C#/	.	8a/	8f#\	.	16gg\	.	.	.	.	.	.	.	.	.	.	.
.	.	.	.	.	16ff#\JJ	.	.	.	.	.	.	.	.	.	.	.
8C#/	.	8a/	8f#\	.	16ee\LL	.	.	.	.	.	.	.	.	.	.	.
.	.	.	.	.	16ff#\	.	.	.	.	.	.	.	.	.	.	.
8C#/J	.	8a/J	8f#\J	.	16gg\	.	.	.	.	.	.	.	.	.	.	.
.	.	.	.	.	16aa\JJ	.	.	.	.	.	.	.	.	.	.	.
=11	=11	=11	=11	=11	=11	=11	=11	=11	=11	=11	=11	=11	=11	=11	=11	=11
8D\L	.	8a/L	8f#\L	.	16ff#\LL	.	.	.	.	.	.	.	.	.	.	.
.	.	.	.	.	16gg\	.	.	.	.	.	.	.	.	.	.	.
8D\	.	8a/	8f#\	.	16ff#\	.	.	.	.	.	.	.	.	.	.	.
.	.	.	.	.	16ee\JJ	.	.	.	.	.	.	.	.	.	.	.
8D\	.	8a/	8f#\	.	8dd\L	.	.	.	.	.	.	.	.	.	.	.
8D\J	.	8a/J	8f#\J	.	16ee\L	.	.	.	.	.	.	.	.	.	.	.
.	.	.	.	.	16ff#\JJ	.	.	.	.	.	.	.	.	.	.	.
=12	=12	=12	=12	=12	=12	=12	=12	=12	=12	=12	=12	=12	=12	=12	=12	=12
8AA/L	.	8a/L	8e\L	.	4ee\	.	.	.	.	.	.	.	.	.	.	.
8AA/	.	8a/	8e\	.	.	.	.	.	.	.	.	.	.	.	.	.
8AA/	.	8a/	8e\	.	4ee\	.	.	.	.	.	.	.	.	.	.	.
8AA/J	.	8a/J	8e\J	.	.	.	.	.	.	.	.	.	.	.	.	.
=13	=13	=13	=13	=13	=13	=13	=13	=13	=13	=13	=13	=13	=13	=13	=13	=13
!	!	!	!	!	!	!	!LO:N:vis=00	!	!LO:N:vis=00	!	!LO:N:vis=00	!	!LO:N:vis=00	!	!LO:N:vis=00	!LO:N:vis=00
8D\L	.	8a/L	8f#\L	.	16ff#\LL	.	0r	.	0r	.	0r	.	0r	.	0r	0r
.	.	.	.	.	16gg\	.	.	.	.	.	.	.	.	.	.	.
8D\	.	8a/	8f#\	.	16ff#\	.	.	.	.	.	.	.	.	.	.	.
.	.	.	.	.	16ee\JJ	.	.	.	.	.	.	.	.	.	.	.
8D\	.	8a/	8f#\	.	8dd\L	.	.	.	.	.	.	.	.	.	.	.
8D\J	.	8a/J	8f#\J	.	16ee\L	.	.	.	.	.	.	.	.	.	.	.
.	.	.	.	.	16ff#\JJ	.	.	.	.	.	.	.	.	.	.	.
=14	=14	=14	=14	=14	=14	=14	=14	=14	=14	=14	=14	=14	=14	=14	=14	=14
*	*	*	*tremolo	*	*	*	*	*	*	*	*	*	*	*	*	*
8C#/L	x 6	8a/L	8e\L	.	16gg\LL	.	.	.	.	.	.	.	.	.	.	.
.	.	.	.	.	16aa\	.	.	.	.	.	.	.	.	.	.	.
8C#/	.	8a/	8e\	.	16gg\	.	.	.	.	.	.	.	.	.	.	.
.	.	.	.	.	16ff#\JJ	.	.	.	.	.	.	.	.	.	.	.
!	!	!	!	!	!LO:LB:g=original	!	!	!	!	!	!	!	!	!	!	!
8C#/	.	8a/	8e\	.	16ee\LL	.	.	.	.	.	.	.	.	.	.	.
.	.	.	.	.	16ff#\	.	.	.	.	.	.	.	.	.	.	.
8C#/J	.	8a/J	8e\J	.	16gg\	.	.	.	.	.	.	.	.	.	.	.
.	.	.	.	.	16aa\JJ	.	.	.	.	.	.	.	.	.	.	.
*Xtremolo	*	*Xtremolo	*Xtremolo	*	*	*	*	*	*	*	*	*	*	*	*	*
!	!	!LO:LB:g=original	!	!	!	!	!	!	!	!	!	!	!	!	!	!
=15	=15	=15	=15	=15	=15	=15	=15	=15	=15	=15	=15	=15	=15	=15	=15	=15
!LO:TX:t=P:problem=mixed beam	!	!	!	!	!	!	!	!	!	!	!	!	!	!	!	!
8D\L	.	8a/L	8f#\L	.	8ff#\L	.	.	.	.	.	.	.	.	.	.	.
8D\	.	8a/	8f#\	.	16ff#\L	.	.	.	.	.	.	.	.	.	.	.
.	.	.	.	.	16dd\JJ	.	.	.	.	.	.	.	.	.	.	.
8A\	.	8a/	8e\	.	16ee\LL	.	.	.	.	.	.	.	.	.	.	.
.	.	.	.	.	16dd\	.	.	.	.	.	.	.	.	.	.	.
8AA/J	.	8a/J	8e\J	.	16ee\	.	.	.	.	.	.	.	.	.	.	.
.	.	.	.	.	16ff#\JJ	.	.	.	.	.	.	.	.	.	.	.
=16	=16	=16	=16	=16	=16	=16	=16	=16	=16	=16	=16	=16	=16	=16	=16	=16
*tremolo	*	*tremolo	*tremolo	*	*	*	*	*	*	*	*	*	*	*	*	*
8D\L	.	8a/L	8f#\L	.	4.dd\	.	.	.	.	.	.	.	.	.	.	.
8D\	.	8a/	8f#\	.	.	.	.	.	.	.	.	.	.	.	.	.
8D\	.	8a/	8f#\	.	.	.	.	.	.	.	.	.	.	.	.	.
8D\J	.	8a/J	8f#\J	.	8a/	.	.	.	.	.	.	.	.	.	.	.
*	*	*Xtremolo	*Xtremolo	*	*	*	*	*	*	*	*	*	*	*	*	*
*	*	*v	*v	*	*	*	*	*	*	*	*	*	*	*	*	*
=17	=17	=17	=17	=17	=17	=17	=17	=17	=17	=17	=17	=17	=17	=17	=17
!LO:TX:a:t=Tutti	!	!	!	!	!	!	!	!	!	!	!	!	!	!	!
8D\L	.	16f#/LL	.	16ff#\LL	.	4D\	Si-	4A\	Si-	4f#\	Si-	4dd\	Si-	4F#/	4d\
.	.	16g/	.	16gg\	.	.	.	.	.	.	.	.	.	.	.
8D\	.	16f#/	.	16ff#\	.	.	.	.	.	.	.	.	.	.	.
.	.	16e/JJ	.	16ee\JJ	.	.	.	.	.	.	.	.	.	.	.
8D\	.	8d/L	.	8dd\L	.	4D\	-cut	4A\	-cut	4f#\	-cut	4dd\	-cut	4F#/	4d\
8D\J	.	16e/L	.	16ee\L	.	.	.	.	.	.	.	.	.	.	.
.	.	16f#/JJ	.	16ff#\JJ	.	.	.	.	.	.	.	.	.	.	.
=18	=18	=18	=18	=18	=18	=18	=18	=18	=18	=18	=18	=18	=18	=18	=18
8C#/L	6 5	16g/LL	.	16gg\LL	.	4C#/	e-	4A\	e-	4g\	e-	4ee\	e-	4A/	4e\
.	.	16a/	.	16aa\	.	.	.	.	.	.	.	.	.	.	.
8C#/	.	16g/	.	16gg\	.	.	.	.	.	.	.	.	.	.	.
.	.	16f#/JJ	.	16ff#\JJ	.	.	.	.	.	.	.	.	.	.	.
8C#/	.	16e/LL	.	16ee\LL	.	4C#/	-rat	4A\	-rat	4g\	-rat	4ee\	-rat	4A/	4e\
.	.	16f#/	.	16ff#\	.	.	.	.	.	.	.	.	.	.	.
8C#/J	.	16g/	.	16gg\	.	.	.	.	.	.	.	.	.	.	.
.	.	16a/JJ	.	16aa\JJ	.	.	.	.	.	.	.	.	.	.	.
*Xtremolo	*	*	*	*	*	*	*	*	*	*	*	*	*	*	*
!LO:LB:g=original	!	!	!	!	!	!	!	!	!	!	!	!	!	!	!
=19	=19	=19	=19	=19	=19	=19	=19	=19	=19	=19	=19	=19	=19	=19	=19
8D\L	.	16f#/LL	.	16ff#\LL	.	4D\	in	4A\	in	4f#\	in	4dd\	in	4d\	4f#\
.	.	16g/	.	16gg\	.	.	.	.	.	.	.	.	.	.	.
8D\	.	16f#/	.	16ff#\	.	.	.	.	.	.	.	.	.	.	.
.	.	16e/JJ	.	16ee\JJ	.	.	.	.	.	.	.	.	.	.	.
8D\	6 5	8d/L	.	8dd\L	.	4D\	prin-	4A\	prin-	4f#\	prin-	4dd\	prin-	4d\	4f#\
8D\J	.	16e/L	.	16ee\L	.	.	.	.	.	.	.	.	.	.	.
.	.	16f#/JJ	.	16ff#\JJ	.	.	.	.	.	.	.	.	.	.	.
=20	=20	=20	=20	=20	=20	=20	=20	=20	=20	=20	=20	=20	=20	=20	=20
*tremolo	*	*	*	*	*	*	*	*	*	*	*	*	*	*	*
8AA/L	.	4e/	.	4ee\	.	8A\	-ci-	8A\	-ci-	8e\	-ci-	8cc#\	-ci-	4A/	4e\
8AA/	.	.	.	.	.	8A\	-pi-	8A\	-pi-	8e\	-pi-	8cc#\	-pi-	.	.
8AA/	.	4e/	.	4ee\	.	8A\	-o	8A\	-o	8e\	-o	8cc#\	-o	4A/	4e\
8AA/J	.	.	.	.	.	8A\	et	8A\	et	8e\	et	8cc#\	et	.	.
!	!	!	!	!LO:LB:g=original	!	!	!	!	!	!	!	!	!	!	!
=21	=21	=21	=21	=21	=21	=21	=21	=21	=21	=21	=21	=21	=21	=21	=21
8D\L	.	16f#/LL	.	16ff#\LL	.	4D\	nunc	4A\	nunc	4f#\	nunc	4dd\	nunc	4F#/	4d\
.	.	16g/	.	16gg\	.	.	.	.	.	.	.	.	.	.	.
8D\	.	16f#/	.	16ff#\	.	.	.	.	.	.	.	.	.	.	.
.	.	16e/JJ	.	16ee\JJ	.	.	.	.	.	.	.	.	.	.	.
8D\	.	8d/L	.	8dd\L	.	4D\	et	4A\	et	4f#\	et	4dd\	et	4F#/	4d\
8D\J	.	16e/L	.	16ee\L	.	.	.	.	.	.	.	.	.	.	.
.	.	16f#/JJ	.	16ff#\JJ	.	.	.	.	.	.	.	.	.	.	.
!	!	!LO:LB:g=original	!	!	!	!	!	!	!	!LO:LB:g=original	!	!LO:LB:g=original	!	!LO:LB:g=original	!
=22	=22	=22	=22	=22	=22	=22	=22	=22	=22	=22	=22	=22	=22	=22	=22
8C#/L	6 5	16g/LL	.	16gg\LL	.	4C#/	Sem-	4A\	Sem-	4g\	Sem-	4ee\	Sem-	4A/	4e\
.	.	16a/	.	16aa\	.	.	.	.	.	.	.	.	.	.	.
8C#/	.	16g/	.	16gg\	.	.	.	.	.	.	.	.	.	.	.
.	.	16f#/JJ	.	16ff#\JJ	.	.	.	.	.	.	.	.	.	.	.
!	!	!	!	!	!	!	!	!LO:LB:g=original	!	!	!	!	!	!	!
8C#/	.	16e/LL	.	16ee\LL	.	8C#/	-per	8A\	-per	8g\	-per	8ee\	-per	4A/	4e\
.	.	16f#/	.	16ff#\	.	.	.	.	.	.	.	.	.	.	.
8C#/J	.	16g/	.	16gg\	.	8C#/	et	8A\	et	8g\	et	8ee\	et	.	.
.	.	16a/JJ	.	16aa\JJ	.	.	.	.	.	.	.	.	.	.	.
*Xtremolo	*	*	*	*	*	*	*	*	*	*	*	*	*	*	*
!	!	!	!	!	!	!LO:LB:g=original	!	!	!	!	!	!	!	!	!
=23	=23	=23	=23	=23	=23	=23	=23	=23	=23	=23	=23	=23	=23	=23	=23
!LO:TX:t=P:problem=mixed beam	!	!	!	!	!	!	!	!	!	!	!	!	!	!	!
8D\L	.	8f#/L	.	8ff#\L	.	8D\	nunc	8A\	nunc	8f#\	nunc	8dd\	nunc	4d\	4f#\
8D\	.	16f#/L	.	16ff#\L	.	8D\	et	8A\	et	8f#\	et	8dd\	et	.	.
.	.	16d/JJ	.	16dd\JJ	.	.	.	.	.	.	.	.	.	.	.
8A\	.	16e/LL	.	16ee\LL	.	4A\	Sem-	4A\	Sem-	4e\	Sem-	4cc#\	Sem-	4A/	4e\
.	.	16d/	.	16dd\	.	.	.	.	.	.	.	.	.	.	.
8AA/J	.	16e/	.	16ee\	.	.	.	.	.	.	.	.	.	.	.
.	.	16f#/JJ	.	16ff#\JJ	.	.	.	.	.	.	.	.	.	.	.
!	!	!	!	!	!	!	!	!	!	!	!	!	!	!	!LO:LB:g=original
=24	=24	=24	=24	=24	=24	=24	=24	=24	=24	=24	=24	=24	=24	=24	=24
*	*	*^	*	*	*	*	*	*	*	*	*	*	*	*	*
*	*	*tremolo	*	*	*	*	*	*	*	*	*	*	*	*	*	*
!	!	!LO:TX:t=P:problem=t. 24-25, 28-30 – półnuta na środku taktu	!	!	!	!	!	!	!	!	!	!	!	!	!	!
8D\L	.	8a/L	8f#\L	.	8dd\L	.	4D\	-per	4A\	-per	4f#\	-per	4dd\	-per	4F#/	4d\
8D\	.	8a/	8f#\	.	8dd\J	.	.	.	.	.	.	.	.	.	.	.
8C#\	6 5	8a/	8e\	.	16ee\LL	.	8C#/	et	8A\	et	8g\	et	8ee\	et	4A/	4e\
.	.	.	.	.	16dd\	.	.	.	.	.	.	.	.	.	.	.
8C#\J	.	8a/J	8e\J	.	16ee\	.	8C#/	in	8A\	in	8g\	in	8ee\	in	.	.
.	.	.	.	.	16gg\JJ	.	.	.	.	.	.	.	.	.	.	.
*	*	*Xtremolo	*	*	*	*	*	*	*	*	*	*	*	*	*	*
=25	=25	=25	=25	=25	=25	=25	=25	=25	=25	=25	=25	=25	=25	=25	=25	=25
*	*	*tremolo	*	*	*	*	*	*	*	*	*	*	*	*	*	*
8D\L	.	8a/L	8f#\L	.	8ff#\L	.	4D\	Sae-	4A\	Sae-	4f#\	Sae-	4dd\	Sae-	4F#/	4d\
8D\	.	8a/	8f#\	.	16ff#\L	.	.	.	.	.	.	.	.	.	.	.
.	.	.	.	.	16dd\JJ	.	.	.	.	.	.	.	.	.	.	.
8C#\	6 5	8a/	8e\	.	16ee\LL	.	8C#/	-cu-	8A\	-cu-	8g\	-cu-	8ee\	-cu-	4A/	4e\
.	.	.	.	.	16dd\	.	.	.	.	.	.	.	.	.	.	.
8C#\J	.	8a/J	8e\J	.	16ee\	.	8C#/	-la	8A\	-la	8g\	-la	8ee\	-la	.	.
.	.	.	.	.	16gg\JJ	.	.	.	.	.	.	.	.	.	.	.
*	*	*Xtremolo	*	*	*	*	*	*	*	*	*	*	*	*	*	*
=26	=26	=26	=26	=26	=26	=26	=26	=26	=26	=26	=26	=26	=26	=26	=26	=26
8D/L	.	8a/L	8f#\L	.	8ff#\L	.	4D\	Sae-	4d\	Sae-	4f#\	Sae-	4dd\	Sae-	4d\	4f#\
8D/	.	8a/J	8f#\	.	16ff#\L	.	.	.	.	.	.	.	.	.	.	.
.	.	.	.	.	16aa\JJ	.	.	.	.	.	.	.	.	.	.	.
!	!	!	!	!	!LO:LB:g=original	!	!	!	!	!	!	!	!	!	!	!
8BB/	6 3	4ryy	8dd\	.	16gg#X\LL	.	4BB/	-cu-	4e\	-cu-	4g#X\	-cu-	4dd\	-cu-	4e\	4e\
.	.	.	.	.	16bb\	.	.	.	.	.	.	.	.	.	.	.
8BB/J	.	.	8dd\J	.	16gg#\	.	.	.	.	.	.	.	.	.	.	.
.	.	.	.	.	16ee\JJ	.	.	.	.	.	.	.	.	.	.	.
*	*	*v	*v	*	*	*	*	*	*	*	*	*	*	*	*	*
!	!	!	!	!	!	!	!	!	!	!LO:LB:g=original	!	!	!	!	!
=27	=27	=27	=27	=27	=27	=27	=27	=27	=27	=27	=27	=27	=27	=27	=27
*tremolo	*	*tremolo	*	*	*	*	*	*	*	*	*	*	*	*	*
8AA/L	.	8cc#\L	.	4.aa\	.	4AA/	-lo-	4e\	-lo-	4a\	-lo-	4cc#\	-lo-	4A/	4e\
8AA/	.	8cc#\	.	.	.	.	.	.	.	.	.	.	.	.	.
8AA/	.	8cc#\	.	.	.	4A\	-rum	4A\	-rum	4e\	-rum	4cc#\	-rum	4A/	4e\
8AA/J	.	8cc#\J	.	8a/	.	.	.	.	.	.	.	.	.	.	.
*Xtremolo	*	*Xtremolo	*	*	*	*	*	*	*	*	*	*	*	*	*
!	!	!	!	!	!	!	!	!	!	!	!	!LO:LB:g=original	!	!	!
=28	=28	=28	=28	=28	=28	=28	=28	=28	=28	=28	=28	=28	=28	=28	=28
*	*	*^	*	*	*	*	*	*	*	*	*	*	*	*	*
*	*	*tremolo	*	*	*	*	*	*	*	*	*	*	*	*	*	*
8D\L	.	8a/L	8f#\L	.	8dd\L	.	4D/	Sae-	4A\	Sae-	4f#\	Sae-	4dd\	Sae-	4F#/	4d\
8D\	.	8a/	8f#\	.	16dd\L	.	.	.	.	.	.	.	.	.	.	.
.	.	.	.	.	16ff#\JJ	.	.	.	.	.	.	.	.	.	.	.
8C#\	6 5	8a/	8e\	.	16ee\LL	.	4C#/	-cu-	4A\	-cu-	4gn\	-cu-	4ee\	-cu-	4A/	4e\
.	.	.	.	.	16dd\	.	.	.	.	.	.	.	.	.	.	.
8C#\J	.	8a/J	8e\J	.	16ee\	.	.	.	.	.	.	.	.	.	.	.
.	.	.	.	.	16gg\JJ	.	.	.	.	.	.	.	.	.	.	.
*	*	*Xtremolo	*	*	*	*	*	*	*	*	*	*	*	*	*	*
!	!	!	!	!	!	!	!	!	!LO:LB:g=original	!	!	!	!	!	!	!
=29	=29	=29	=29	=29	=29	=29	=29	=29	=29	=29	=29	=29	=29	=29	=29	=29
*	*	*tremolo	*	*	*	*	*	*	*	*	*	*	*	*	*	*
8D\L	.	8a/L	8f#\L	.	8ff#\L	.	4D/	-lo-	4A\	-lo-	4f#\	-lo-	4dd\	-lo-	4F#/	4d\
8D\	.	8a/	8f#\	.	16ff#\L	.	.	.	.	.	.	.	.	.	.	.
.	.	.	.	.	16dd\JJ	.	.	.	.	.	.	.	.	.	.	.
8C#\	6 5	8a/	8e\	.	16ee\LL	.	4C#/	-rum	4A\	-rum	4g\	-rum	4ee\	-rum	4A/	4e\
.	.	.	.	.	16dd\	.	.	.	.	.	.	.	.	.	.	.
8C#\J	.	8a/J	8e\J	.	16ee\	.	.	.	.	.	.	.	.	.	.	.
.	.	.	.	.	16gg\JJ	.	.	.	.	.	.	.	.	.	.	.
*	*	*Xtremolo	*	*	*	*	*	*	*	*	*	*	*	*	*	*
!LO:LB:g=original	!	!LO:LB:g=original	!	!	!	!	!	!	!	!	!	!	!	!	!	!
=30	=30	=30	=30	=30	=30	=30	=30	=30	=30	=30	=30	=30	=30	=30	=30	=30
*	*	*tremolo	*	*	*	*	*	*	*	*	*	*	*	*	*	*
8D/L	.	8a/L	8f#\L	.	8ff#\L	.	4D/	a-	2A\	a-	4f#\	a-	4dd\	a-	4d\	4f#\
8D/	.	8a/	8f#\	.	16ff#\L	.	.	.	.	.	.	.	.	.	.	.
.	.	.	.	.	16dd\JJ	.	.	.	.	.	.	.	.	.	.	.
8AA/	.	8a/	8e\	.	16cc#\LL	.	4AA/	.	.	.	4e\	.	4cc#\	.	4A/	4e\
.	.	.	.	.	16dd\	.	.	.	.	.	.	.	.	.	.	.
8AA/J	.	8a/J	8e\J	.	16ee\	.	.	.	.	.	.	.	.	.	.	.
.	.	.	.	.	16cc#\JJ	.	.	.	.	.	.	.	.	.	.	.
*	*	*Xtremolo	*	*	*	*	*	*	*	*	*	*	*	*	*	*
!	!	!	!	!	!	!	!LO:LB:g=original	!	!	!	!	!	!	!	!	!
=31	=31	=31	=31	=31	=31	=31	=31	=31	=31	=31	=31	=31	=31	=31	=31	=31
*tremolo	*	*	*	*	*	*	*	*	*	*	*	*	*	*	*	*
8D\L	.	8a/L	8f#\L	.	4.dd\	.	4D\	-men	4A\	-men	4f#\	-men	4dd\	-men	8F#/L	8d\L
8D\	.	8a/	8f#\	.	.	.	.	.	.	.	.	.	.	.	8F#/	8d\
8D\	.	8a/J	8f#\J	.	.	.	8D\	et	8A\	et	8f#\	et	8dd\	et	8F#/	8d\
8D\J	.	16f#/LL	8ryy	.	16ff#\LL	.	8D\	in	8A\	in	8f#\	in	8dd\	in	8F#/J	8d\J
.	.	16e/JJ	.	.	16ee\JJ	.	.	.	.	.	.	.	.	.	.	.
*	*	*v	*v	*	*	*	*	*	*	*	*	*	*	*	*	*
!	!	!	!	!	!	!	!	!	!	!	!	!	!	!LO:LB:g=original	!
=32	=32	=32	=32	=32	=32	=32	=32	=32	=32	=32	=32	=32	=32	=32	=32
8D\L	.	8d/L	.	8dd\L	.	4D\	Sae-	4A\	Sae-	4f#\	Sae-	4dd\	Sae-	4F#/	4d\
8D\	.	16f#/L	.	16ff#\L	.	.	.	.	.	.	.	.	.	.	.
.	.	16e/JJ	.	16ee\JJ	.	.	.	.	.	.	.	.	.	.	.
!	!	!	!	!LO:LB:g=original	!	!	!	!	!	!	!	!	!	!	!
8D\	.	8d/L	.	8dd\L	.	8D\	-cu-	8A\	-cu-	8f#\	-cu-	8dd\	-cu-	4F#/	4d\
8D\J	.	16f#/L	.	16ff#\L	.	8D\	-la	8A\	-la	8f#\	-la	8dd\	-la	.	.
.	.	16g/JJ	.	16gg\JJ	.	.	.	.	.	.	.	.	.	.	.
=33	=33	=33	=33	=33	=33	=33	=33	=33	=33	=33	=33	=33	=33	=33	=33
8D\L	.	8a/L	.	8aa\L	.	4D\	Sae-	4A\	Sae-	4f#\	Sae-	4dd\	Sae-	4F#/	4d\
8D\	.	16f#/L	.	16ff#\L	.	.	.	.	.	.	.	.	.	.	.
.	.	16e/JJ	.	16ee\JJ	.	.	.	.	.	.	.	.	.	.	.
8D\	.	8d/L	.	8dd\L	.	4D\	-cu-	4A\	-cu-	4f#\	-cu-	4dd\	-cu-	4F#/	4d\
8D\J	.	16f#/L	.	16ff#\L	.	.	.	.	.	.	.	.	.	.	.
.	.	16g/JJ	.	16gg\JJ	.	.	.	.	.	.	.	.	.	.	.
!	!	!	!	!	!	!	!	!	!	!LO:LB:g=original	!	!	!	!	!LO:LB:g=original
=34	=34	=34	=34	=34	=34	=34	=34	=34	=34	=34	=34	=34	=34	=34	=34
8D\L	.	8a/L	.	8aa\L	.	4D\	-lo-	4A\	-lo-	4f#\	-lo-	4dd\	-lo-	4F#/	4d\
8D\	.	16f#/L	.	16ff#\L	.	.	.	.	.	.	.	.	.	.	.
.	.	16e/JJ	.	16ee\JJ	.	.	.	.	.	.	.	.	.	.	.
8D\	.	8d/L	.	8dd\L	.	4D\	-rum	4A\	-rum	4f#\	-rum	4dd\	-rum	4F#/	4d\
8D\J	.	8f#/J	.	8ff#\J	.	.	.	.	.	.	.	.	.	.	.
!	!	!	!	!	!	!	!	!	!	!	!	!LO:LB:g=original	!	!	!
=35	=35	=35	=35	=35	=35	=35	=35	=35	=35	=35	=35	=35	=35	=35	=35
8D\L	.	8A/L	.	8a\L	.	4D\	et	4A\	et	4f#\	et	4dd\	et	4F#/	4d\
8D\	.	16B/L	.	16b\L	.	.	.	.	.	.	.	.	.	.	.
.	.	16c#/JJ	.	16cc#\JJ	.	.	.	.	.	.	.	.	.	.	.
8D\	.	4d/	.	4dd\	.	4D\	in	4A\	in	4f#\	in	4dd\	in	4F#/	4d\
8D\J	.	.	.	.	.	.	.	.	.	.	.	.	.	.	.
=36	=36	=36	=36	=36	=36	=36	=36	=36	=36	=36	=36	=36	=36	=36	=36
8D\L	.	8A/L	.	8a\L	.	4D\	Sae-	4A\	Sae-	4f#\	Sae-	4dd\	Sae-	4F#/	4d\
8D\	.	16B/L	.	16b\L	.	.	.	.	.	.	.	.	.	.	.
.	.	16c#/JJ	.	16cc#\JJ	.	.	.	.	.	.	.	.	.	.	.
8D\	.	8d/L	.	8dd\L	.	8D\	-cu-	8A\	-cu-	8f#\	-cu-	8dd\	-cu-	4F#/	4d\
8D\J	.	8f#/J	.	8ff#\J	.	8D\	-la	8A\	-la	8f#\	-la	8dd\	-la	.	.
!	!	!	!	!	!	!	!	!LO:LB:g=original	!	!	!	!	!	!	!
=37	=37	=37	=37	=37	=37	=37	=37	=37	=37	=37	=37	=37	=37	=37	=37
8D\L	.	8A/L	.	8a\L	.	4D\	Sae-	4A\	Sae-	4f#\	Sae-	4dd\	Sae-	4F#/	4d\
8D\	.	16B/L	.	16b\L	.	.	.	.	.	.	.	.	.	.	.
.	.	16c#/JJ	.	16cc#\JJ	.	.	.	.	.	.	.	.	.	.	.
8D\	.	8d/L	.	8dd\L	.	4D\	-cu-	4A\	-cu-	4f#\	-cu-	4dd\	-cu-	4d\	4f#\
8D\J	.	8f#/J	.	8ff#\J	.	.	.	.	.	.	.	.	.	.	.
*Xtremolo	*	*	*	*	*	*	*	*	*	*	*	*	*	*	*
!	!	!LO:LB:g=original	!	!	!	!	!	!	!	!	!	!	!	!	!
=38	=38	=38	=38	=38	=38	=38	=38	=38	=38	=38	=38	=38	=38	=38	=38
8G\L	x 6	8e/L	.	8ee\L	.	4G\	-lo-	(4B\	-lo-	4g\	-lo-	4ee\	-lo-	4e\	4g\
8G\	.	16e/L	.	16ee\L	.	.	.	.	.	.	.	.	.	.	.
.	.	16d/JJ	.	16dd\JJ	.	.	.	.	.	.	.	.	.	.	.
8A\	.	8c#/L	.	8cc#\L	.	4G\	.	4A\)	.	4e\	.	4cc#\	-rum	4A/	4e\
8A\J	.	16c#/L	.	16cc#\L	.	.	.	.	.	.	.	.	.	.	.
.	.	16A/JJ	.	16a\JJ	.	.	.	.	.	.	.	.	.	.	.
!	!	!	!	!LO:LB:g=original	!	!LO:LB:g=original	!	!	!	!	!	!	!	!	!
=39	=39	=39	=39	=39	=39	=39	=39	=39	=39	=39	=39	=39	=39	=39	=39
8D\L	.	8d/L	.	8dd\L	.	4D\	-rum	4A\	-rum	4f#\	-rum	4dd\	a-	4F#/	4d\
8D\	.	16e/L	.	16ee\L	.	.	.	.	.	.	.	.	.	.	.
.	.	16f#/JJ	.	16ff#\JJ	.	.	.	.	.	.	.	.	.	.	.
8D\	.	8d/L	.	8dd\L	.	4D\	a-	4A\	a-	4f#\	a-	4dd\	.	4d\	4f#\
8D\J	.	16e/L	.	16ee\L	.	.	.	.	.	.	.	.	.	.	.
.	.	16f#/JJ	.	16ff#\JJ	.	.	.	.	.	.	.	.	.	.	.
!	!	!	!	!	!	!	!	!	!	!	!	!	!	!LO:LB:g=original	!
=40	=40	=40	=40	=40	=40	=40	=40	=40	=40	=40	=40	=40	=40	=40	=40
8G\L	x 6	8e/L	.	8ee\L	.	4G\	.	(4B\	.	4g\	.	4ee\	.	4e\	4g\
8G\	.	16e/L	.	16ee\L	.	.	.	.	.	.	.	.	.	.	.
.	.	16d/JJ	.	16dd\JJ	.	.	.	.	.	.	.	.	.	.	.
8A\	.	8c#/L	.	8cc#\L	.	4A\	.	4A\)	.	4e\	.	4cc#\	.	4A/	4e\
8A\J	.	16c#/L	.	16cc#\L	.	.	.	.	.	.	.	.	.	.	.
.	.	16A/JJ	.	16a\JJ	.	.	.	.	.	.	.	.	.	.	.
!	!	!	!	!	!	!	!	!	!	!LO:LB:g=original	!	!	!	!	!
=41	=41	=41	=41	=41	=41	=41	=41	=41	=41	=41	=41	=41	=41	=41	=41
*	*	*tremolo	*	*	*	*	*	*	*	*	*	*	*	*	*
[<2D\	.	8aL 8f#/	.	8dd\L	.	4D\	-men	4A\	-men	4f#\	-men	4dd\	-men	2F#/	2d\
.	.	8a 8f#/	.	16ee\L	.	.	.	.	.	.	.	.	.	.	.
.	.	.	.	16ff#\JJ	.	.	.	.	.	.	.	.	.	.	.
.	.	8a 8f#/	.	8dd\L	.	4r	.	4r	.	4r	.	4r	.	.	.
.	.	8aJ 8f#/	.	16ee\L	.	.	.	.	.	.	.	.	.	.	.
.	.	.	.	16ff#\JJ	.	.	.	.	.	.	.	.	.	.	.
*	*	*Xtremolo	*	*	*	*	*	*	*	*	*	*	*	*	*
!LO:LB:g=original	!	!	!	!	!	!	!	!	!	!	!	!	!	!	!
=42	=42	=42	=42	=42	=42	=42	=42	=42	=42	=42	=42	=42	=42	=42	=42
!	!	!	!	!	!	!LO:N:vis=0	!	!LO:N:vis=0	!	!LO:N:vis=00	!	!LO:N:vis=0	!	!	!
2D\_<	.	2a 2f#/	.	16dd\LL	.	1r	.	1r	.	1r	.	1r	.	2F#/	2d\
.	.	.	.	16ee\	.	.	.	.	.	.	.	.	.	.	.
.	.	.	.	16ff#\	.	.	.	.	.	.	.	.	.	.	.
.	.	.	.	16gg\JJ	.	.	.	.	.	.	.	.	.	.	.
.	.	.	.	8aa\L	.	.	.	.	.	.	.	.	.	.	.
.	.	.	.	16aa\L	.	.	.	.	.	.	.	.	.	.	.
.	.	.	.	16ff#\JJ	.	.	.	.	.	.	.	.	.	.	.
=43	=43	=43	=43	=43	=43	=43	=43	=43	=43	=43	=43	=43	=43	=43	=43
2D\_<	.	2a 2f#/	.	8dd\L	.	.	.	.	.	.	.	.	.	2F#/	2d\
.	.	.	.	16ee\L	.	.	.	.	.	.	.	.	.	.	.
.	.	.	.	16ff#\JJ	.	.	.	.	.	.	.	.	.	.	.
.	.	.	.	8dd\L	.	.	.	.	.	.	.	.	.	.	.
.	.	.	.	16ee\L	.	.	.	.	.	.	.	.	.	.	.
.	.	.	.	16ff#\JJ	.	.	.	.	.	.	.	.	.	.	.
=44	=44	=44	=44	=44	=44	=44	=44	=44	=44	=44	=44	=44	=44	=44	=44
!	!	!LO:TX:b:t=Fine	!	!	!	!	!	!	!	!	!	!	!	!LO:TX:b:t=Fine	!LO:TX:b:t=Fine
2D\]	.	2a 2f#/	.	16dd\LL	.	2r	.	2r	.	2r	.	2r	.	2F#/	2d\
.	.	.	.	16cc#\	.	.	.	.	.	.	.	.	.	.	.
.	.	.	.	16b\	.	.	.	.	.	.	.	.	.	.	.
.	.	.	.	16a\JJ	.	.	.	.	.	.	.	.	.	.	.
!	!	!	!	!LO:TX:b:t=Finis	!	!	!	!	!	!	!	!	!	!	!
.	.	.	.	4dd\	.	.	.	.	.	.	.	.	.	.	.
==	==	==	==	==	==	==	==	==	==	==	==	==	==	==	==
*-	*-	*-	*-	*-	*-	*-	*-	*-	*-	*-	*-	*-	*-	*-	*-
!!!system-decoration: [g1][g2][g3]g4
!!!RDF**kern: > = above
!!!RDF**kern: < = below
!!!AIN: 1 alto 1 bass 2 cor 1 organ 1 soprn 1 tenor 2 violn
!!!ENC: Katarzyna Serwa
!!!END: 2021-12-04
!!!ENC: Andrzej Gręziak
!!!END: 2021-11-24
